dist/uploads/catalog-sidebar-icons/1/i-catalog-11.svg

<svg width="34" height="34" viewBox="0 0 34 34" fill="none" xmlns="http://www.w3.org/2000/svg">
<path d="M26.6313 15.7666H17.9965V18.7374H26.6313V15.7666Z" fill="#FFC800"/>
<path d="M16.0038 15.7666H7.3689V18.7374H16.0038V15.7666Z" fill="#FFC800"/>
<path d="M29.7532 9.10614C28.5265 9.10614 27.8572 8.61493 27.0098 7.99317C26.0612 7.29696 24.9859 6.50799 23.1394 6.50799C22.002 6.50799 21.2935 6.09952 20.4734 5.62651C19.7775 5.22535 19.0114 4.78395 17.9965 4.64124V3.35083H16.0039V4.64091C14.9888 4.78341 14.2229 5.22522 13.527 5.62644C12.7068 6.09946 11.9984 6.50792 10.861 6.50792C9.01453 6.50792 7.93934 7.29696 6.9906 7.9931C6.14318 8.61493 5.47394 9.10607 4.24715 9.10607H3.25085V18.9065C3.64577 18.7971 4.06128 18.7373 4.49066 18.7373H5.37632V13.7738H28.6241V18.7373H29.5097C29.9391 18.7373 30.3546 18.797 30.7495 18.9065V9.10614H29.7532Z" fill="#FFC800"/>
<path d="M33.8344 27.2616C33.5493 26.5729 32.9225 26.0606 32.1664 25.9369V23.2763H32.1636C32.1053 21.8624 30.9374 20.7301 29.5095 20.7301H4.49053C3.06266 20.7301 1.89477 21.8625 1.83647 23.2763H1.83368V25.9369C1.07758 26.0605 0.450767 26.5729 0.165684 27.2616C0.0591017 27.5187 0 27.8004 0 28.0956C0 28.9433 0.484899 29.6794 1.19153 30.0425V30.649H3.18419V28.8113H30.8157V30.649H32.8084V30.0425C33.515 29.6794 33.9999 28.9433 33.9999 28.0956C34 27.8004 33.9409 27.5188 33.8344 27.2616ZM17 26.8187C16.4094 26.8187 15.5166 26.5096 15.5166 26.0437C15.5166 25.5779 16.4094 25.2688 17 25.2688C17.5906 25.2688 18.4834 25.5778 18.4834 26.0437C18.4835 26.5096 17.5907 26.8187 17 26.8187Z" fill="#FFC800"/>
</svg>

<svg width="34" height="34" fill="none" xmlns="http://www.w3.org/2000/svg"><path d="M26.631 15.767h-8.634v2.97h8.634v-2.97zm-10.627 0H7.369v2.97h8.635v-2.97z" fill="#FFC800"/><path d="M29.753 9.106c-1.227 0-1.896-.491-2.743-1.113-.949-.696-2.024-1.485-3.87-1.485-1.138 0-1.846-.408-2.667-.881-.695-.402-1.462-.843-2.476-.986v-1.29h-1.993v1.29c-1.015.142-1.781.584-2.477.985-.82.473-1.529.882-2.666.882-1.846 0-2.922.789-3.87 1.485-.848.622-1.517 1.113-2.744 1.113h-.996v9.8c.395-.109.81-.169 1.24-.169h.885v-4.963h23.248v4.963h.886c.43 0 .845.06 1.24.17v-9.8h-.997zm4.081 18.156a2.194 2.194 0 0 0-1.668-1.325v-2.66h-.002a2.66 2.66 0 0 0-2.655-2.547H4.491a2.66 2.66 0 0 0-2.655 2.546h-.002v2.66A2.194 2.194 0 0 0 0 28.097a2.19 2.19 0 0 0 1.192 1.947v.606h1.992v-1.838h27.632v1.838h1.992v-.607a2.19 2.19 0 0 0 1.026-2.78zM17 26.819c-.59 0-1.483-.31-1.483-.775 0-.466.892-.775 1.483-.775.59 0 1.483.309 1.483.775s-.892.775-1.483.775z" fill="#FFC800"/></svg>
